build/img/icons/album.svg

<svg width="30" height="30" viewBox="0 0 30 30" fill="none" xmlns="http://www.w3.org/2000/svg">
<path fill-rule="evenodd" clip-rule="evenodd" d="M0 25.1472C0 27.5981 2.01472 29.585 4.5 29.585H25.5C27.9853 29.585 30 27.5981 30 25.1472V4.43774C30 1.98685 27.9853 0 25.5 0H4.5C2.01472 0 0 1.98685 0 4.43774V25.1472ZM27 25.1472C27 25.9642 26.3284 26.6265 25.5 26.6265H4.5C3.67157 26.6265 3 25.9642 3 25.1472V4.43774C3 3.62078 3.67157 2.9585 4.5 2.9585H12V14.8089L15.5925 14.809L18.0001 11.6331L20.4076 14.809H24.0002L24 2.9585H25.5C26.3284 2.9585 27 3.62078 27 4.43774V25.1472ZM21 2.9585H15V10.8515L18.0001 6.89397L21 10.8513V2.9585Z" fill="#FF9900"/>
<path fill-rule="evenodd" clip-rule="evenodd" d="M0 25.1472C0 27.5981 2.01472 29.585 4.5 29.585H25.5C27.9853 29.585 30 27.5981 30 25.1472V4.43774C30 1.98685 27.9853 0 25.5 0H4.5C2.01472 0 0 1.98685 0 4.43774V25.1472ZM27 25.1472C27 25.9642 26.3284 26.6265 25.5 26.6265H4.5C3.67157 26.6265 3 25.9642 3 25.1472V4.43774C3 3.62078 3.67157 2.9585 4.5 2.9585H12V14.8089L15.5925 14.809L18.0001 11.6331L20.4076 14.809H24.0002L24 2.9585H25.5C26.3284 2.9585 27 3.62078 27 4.43774V25.1472ZM21 2.9585H15V10.8515L18.0001 6.89397L21 10.8513V2.9585Z" fill="url(#paint0_linear)" fill-opacity="0.35"/>
<defs>
<linearGradient id="paint0_linear" x1="28.2353" y1="23.4939" x2="4.67735" y2="4.02929" gradientUnits="userSpaceOnUse">
<stop stop-color="white"/>
<stop offset="1" stop-color="white" stop-opacity="0"/>
</linearGradient>
</defs>
</svg>

<svg width="30" height="30" viewBox="0 0 30 30" fill="none" xmlns="http://www.w3.org/2000/svg">
    <path fill-rule="evenodd" clip-rule="evenodd" d="M0 25.147c0 2.451 2.015 4.438 4.5 4.438h21c2.485 0 4.5-1.987 4.5-4.438V4.437C30 1.988 27.985 0 25.5 0h-21C2.015 0 0 1.987 0 4.438v20.71zm27 0a1.49 1.49 0 0 1-1.5 1.48h-21a1.49 1.49 0 0 1-1.5-1.48V4.437c0-.816.672-1.479 1.5-1.479H12v11.85l3.592.001L18 11.633l2.408 3.176H24V2.959h1.5c.828 0 1.5.662 1.5 1.479v20.71zM21 2.96h-6v7.893l3-3.958 3 3.957V2.958z" fill="#F90"/>
    <path fill-rule="evenodd" clip-rule="evenodd" d="M0 25.147c0 2.451 2.015 4.438 4.5 4.438h21c2.485 0 4.5-1.987 4.5-4.438V4.437C30 1.988 27.985 0 25.5 0h-21C2.015 0 0 1.987 0 4.438v20.71zm27 0a1.49 1.49 0 0 1-1.5 1.48h-21a1.49 1.49 0 0 1-1.5-1.48V4.437c0-.816.672-1.479 1.5-1.479H12v11.85l3.592.001L18 11.633l2.408 3.176H24V2.959h1.5c.828 0 1.5.662 1.5 1.479v20.71zM21 2.96h-6v7.893l3-3.958 3 3.957V2.958z" fill="url(#a)" fill-opacity=".35"/>
    <defs>
        <linearGradient id="a" x1="28.235" y1="23.494" x2="4.677" y2="4.029" gradientUnits="userSpaceOnUse">
            <stop stop-color="#fff"/>
            <stop offset="1" stop-color="#fff" stop-opacity="0"/>
        </linearGradient>
    </defs>
</svg>
